X:409
T:Lady Mary Ramsay's Reel
T:The Queen's Shilling (DMI752)
D:Aly Bain/Phil Cunningham: The Ruby
Z:Nigel Gatherer <gatherer@argonet.co.uk> scots-l 2002-11-22
N:Originally a strathspey
M:4/4
L:1/8
K:D
FE | D3 B AFFA | BGGB AFAd | D3 B AFFA | BdAF EGFE  |
     D3 B AFFA | BGGB AFAd | D3 B AFFA | BdAF E3   ||
g  | fddf ecce | dBBd AFDg | fddf eccA | BdAF E3 g  |
     fddf ecce | dBBd AFD2 | faef dBAF | BdAF EGFE ||
